usr/share/icons/biglinux-icons-material-dark/symbolic/mimetypes/text-css-symbolic.svg

<svg width="16px" height="16px" version="1.1" viewBox="0 0 16 16" xmlns="http://www.w3.org/2000/svg">
 <path d="m5 3c-1.108 0-2 0.89201-2 2v2l-2 1 2 1v2c0 1.108 0.89201 2 2 2h1v-1h-1c-0.554 0-1-0.446-1-1v-2.5l-1-0.5 1-0.5v-2.5c0-0.554 0.446-1 1-1h1v-1h-1zm5 0v1h1c0.554 0 1 0.446 1 1v2.5l1 0.5-1 0.5v2.5c0 0.554-0.446 1-1 1h-1v1h1c1.108 0 2-0.892 2-2v-2l2-1-2-1v-2c0-1.108-0.892-2-2-2h-1z" fill="#dedede" fill-rule="evenodd" stop-color="#000000"/>
</svg>

<svg xmlns="http://www.w3.org/2000/svg" width="16" height="16">
<path fill="#dedede" fill-rule="evenodd" d="M5 3c-1.108 0-2 .892-2 2v2L1 8l2 1v2c0 1.108.892 2 2 2h1v-1H5c-.554 0-1-.446-1-1V8.5L3 8l1-.5V5c0-.554.446-1 1-1h1V3zm5 0v1h1c.554 0 1 .446 1 1v2.5l1 .5-1 .5V11c0 .554-.446 1-1 1h-1v1h1c1.108 0 2-.892 2-2V9l2-1-2-1V5c0-1.108-.892-2-2-2z"/>
</svg>
